X: 4
T: The Road To Errogie
R: reel
M: 4/4
L: 1/8
K: Gmaj
DGG2 AGAB|dGG2 AGBd|e3g edBG|A3B AGEG|
DGG2 AGAB|dGG2 AGBd|e3g edBG|AGAB G3E:|
dg g2 g2ag|ab3 g3d|e2dg2de2-|dG3 edBc|
dgg2 g2ag|ab2a g3d|e3g edBG|AGBA G4|
dg g2 g2ag|ab2a g3d|e2dg2de2-|dG3  edBG|
DGG2 AGAB|dGG2 AGBd|e3g edBG|AGBA G3E||